X: 37281
T: Skip The Umbrella In The Rain
R: jig
M: 6/8
K: Dmajor
def g2d|cde dAF|GAB AFD|EFG ABc|
def g2d|cde dAF|GAB AFD|1 EDC D3:|2 EDC D2D||
CDE DEF|GAB AFA|BAG dAF|EEE E2D|
CDE DEF|GAB AFA|BAG dAF|1 EFE D2 D:|2 EDC D3||

